**kern	**kern	**dynam
*part1	*part1	*part1
*staff2	*staff1	*
*I"Piano	*	*
*clefF4	*clefG2	*
*k[]	*k[]	*
=1	=1	=1
2.G	4c 4d	.
.	4c 4d	.
.	4c 4d	.
=	=	=
*^	*	*
4F	2.GG	4B 4d	.
!	!	!LO:TX:a:i:t=dimin.	!
4F	.	4B 4d	.
4F	.	4B 4d	.
=	=	=	=
4E: 4B-X:	2.C	2c^	.
4E 4B-	.	.	.
4E 4B-	.	4c	.
*v	*v	*	*
=	=	=
4C 4B-X	4c 4e 4g	<
4C 4B-	4c 4e 4g	.
4C 4B-	4c 4e 4g	.
=	=	=
*	*^	*
4C 4A	4.g^	4c 4e-X	[ >
4C 4A	.	4c 4e-	.
.	8f#X	.	.
4C 4A	4f#	4c 4e-	]
=	=	=	=
4C 4A-X	4fn	4c 4d	p
4C 4A-	4.cc	4c 4d	.
4C 4A-	.	4c 4d	.
.	8f	.	.
=	=	=	=
4C 4G	4.f	4c	.
4C 4G	.	4c	.
.	8e	.	.
4C 4G	4e	4c	.
*	*v	*v	*
=	=	=
*-	*-	*-
!!!system-decoration: {(s1,s2)}
